X:43
T:Wir sind des Geyers schwarze Haufen
Z:http://ingeb.org/Lieder/wirsindg.html
M:4/4
L:1/8
Q:1/4=120
% Last note suggests minor mode tune
K:F % 1 flats
%%MIDI program 0
A,| \
D3 _D =DE FG| A2 B2 A2 z2| B4 d2 B2| A4 z2 A2| 
G2 B2 A2 G2| F2 E2 D2 D2| E4 A3 A|D4 z4| 
D3 F A2 z2| B2 d2 A2 z2 | GF EF G2 A2|F2 E2 D4| 
D3 F A2 z2| B2 d2 A2 z2| GF EF G2 A2|
M:7/8
L:1/8
[d4-D4-] [dD] 

